X: 2174
T: Auld Stewarts Of Forthergill
R: reel
M: 4/4
K: Cmajor
|:E|(G,C)CE c2ca|gede cAAc|(G,C)CE c2ca|gede c/c/c c:|
g|agec dcAc|GcEc GcEg|agec dcAc|GEcE D/D/D Dg|
agec dcAc|GcEc GcED|(G,C)CE c2ca|gede c/c/c c||

